X:250
T:Gan Ainm
M:6/8
S:Unknown fiddler
R:Jig
D:Session tape -  Mullach, Clare 1985
Z:Bernie Stocks
H:Played with 51
K:G
D2G GAG | ~F3 D2c | ~B3 GBd | cAG FGA | D2G GAG | ~F3 DBc | ded cAF |1 ~G3 GFE\
:|2 ~G3 GBc |: dgg dff | dgg cBc | dgg dff |\
~G3 ABc | def gfg | agf (3.g.a.ge | fed cAE | ~G3 G3 :|
